car-pickup.svg

<svg fill="currentColor" viewBox="0 0 24 24"><path d="M16 6h-5.5v4H1v5h2a3 3 0 0 0 3 3 3 3 0 0 0 3-3h6a3 3 0 0 0 3 3 3 3 0 0 0 3-3h2v-3c0-1.11-.89-2-2-2h-2zm-4 1.5h3.5l1.96 2.5H12zm-6 6A1.5 1.5 0 0 1 7.5 15 1.5 1.5 0 0 1 6 16.5 1.5 1.5 0 0 1 4.5 15 1.5 1.5 0 0 1 6 13.5m12 0a1.5 1.5 0 0 1 1.5 1.5 1.5 1.5 0 0 1-1.5 1.5 1.5 1.5 0 0 1-1.5-1.5 1.5 1.5 0 0 1 1.5-1.5"/></svg>

<svg  viewBox="0 0 24 24" fill="currentColor"><path  d="M16,6H10.5V10H1V15H3A3,3 0 0,0 6,18A3,3 0 0,0 9,15H15A3,3 0 0,0 18,18A3,3 0 0,0 21,15H23V12C23,10.89 22.11,10 21,10H19L16,6M12,7.5H15.5L17.46,10H12V7.5M6,13.5A1.5,1.5 0 0,1 7.5,15A1.5,1.5 0 0,1 6,16.5A1.5,1.5 0 0,1 4.5,15A1.5,1.5 0 0,1 6,13.5M18,13.5A1.5,1.5 0 0,1 19.5,15A1.5,1.5 0 0,1 18,16.5A1.5,1.5 0 0,1 16.5,15A1.5,1.5 0 0,1 18,13.5Z"/></svg>
